icons/perl.svg

<svg width="16" height="16" viewBox="0 0 16 16" fill="none" xmlns="http://www.w3.org/2000/svg">
<path fill-rule="evenodd" clip-rule="evenodd" d="M7.88545 2.30535C8.05423 3.14925 8.16251 5.1813 7.88545 6.43192C7.08882 10.0279 7.06329 12.9994 9.59499 14.0121C12.1267 15.0248 14.5828 11.8717 13.748 9.34718C12.9775 7.0172 11.3924 6.08939 10.5828 5.61555C10.5152 5.57598 10.453 5.53957 10.3971 5.50578C10.1205 5.33841 9.83601 5.18043 9.57713 5.03664C9.15787 4.80378 8.80568 4.60817 8.66215 4.47028C8.61119 4.19065 8.57337 3.90566 8.53777 3.63735C8.42206 2.76536 8.32971 2.0694 7.88545 2.30535ZM9.04471 5.91507C10.5488 6.60341 12.713 8.29586 12.713 10.2965C12.713 12.2971 11.5368 12.8067 10.6763 13.0277C11.0922 12.2464 11.4394 11.3862 11.1097 9.40767C10.8757 8.0037 10.1614 7.19043 9.3922 6.31455C9.27713 6.18352 9.16082 6.05109 9.04471 5.91507Z" fill="#9587EF"/>
<path d="M7.43588 4.99685C7.82685 2.96365 7.36365 1.25504 7.20074 1.09213C6.87736 1.18454 6.97737 1.34678 7.0103 1.5501C7.16787 2.52289 7.11498 2.99305 7.11498 3.74823C7.11498 5.70323 4.85991 7.13475 4.59471 8.99129C4.42055 10.2105 4.49832 11.258 5.42688 12.431C6.35544 13.604 8.21783 13.7619 7.43588 13.1754C6.65394 12.5889 5.77425 11.3491 5.77425 9.99978C5.77425 8.04816 6.94716 7.53835 7.43588 4.99685Z" fill="#9587EF"/>
<path d="M6.21521 5.12425C6.74339 4.44936 6.76182 3.12526 6.67012 2.54449C6.43974 2.54449 6.54214 3.21941 6.34238 3.86689C6.07489 4.73393 5.6549 5.09693 5.13207 5.46626C4.07274 6.21457 2.2396 8.12735 2.09101 9.70303C2.04392 10.2023 1.95984 11.6249 3.0308 12.9691C4.29883 14.5606 7.21872 14.3432 6.74262 14.1308C4.90087 13.3091 3.7129 12.488 3.43268 10.6043C3.10257 8.38523 5.55498 5.96786 6.21521 5.12425Z" fill="#9587EF"/>
</svg>

<svg xmlns="http://www.w3.org/2000/svg" width="16" height="16" fill="none"><path fill="#9587EF" fill-rule="evenodd" d="M7.885 2.305c.17.844.278 2.876 0 4.127-.796 3.596-.822 6.567 1.71 7.58s4.988-2.14 4.153-4.665c-.77-2.33-2.356-3.258-3.165-3.731l-.186-.11c-.277-.168-.561-.326-.82-.47-.42-.232-.771-.428-.915-.566-.05-.28-.089-.564-.124-.833-.116-.872-.208-1.568-.653-1.332Zm1.16 3.61c1.504.688 3.668 2.38 3.668 4.381 0 2.001-1.176 2.51-2.037 2.732.416-.782.763-1.642.434-3.62-.234-1.404-.949-2.218-1.718-3.093-.115-.131-.231-.264-.347-.4Z" clip-rule="evenodd"/><path fill="#9587EF" d="M7.436 4.997c.39-2.033-.072-3.742-.235-3.905-.324.093-.224.255-.19.458.157.973.104 1.443.104 2.198 0 1.955-2.255 3.387-2.52 5.243-.174 1.22-.097 2.267.832 3.44.928 1.173 2.79 1.33 2.009.744C6.654 12.59 5.774 11.35 5.774 10c0-1.952 1.173-2.462 1.662-5.003Z"/><path fill="#9587EF" d="M6.215 5.124c.528-.675.547-1.999.455-2.58-.23 0-.128.675-.328 1.323-.267.867-.687 1.23-1.21 1.6-1.06.748-2.892 2.66-3.041 4.236-.047.5-.131 1.922.94 3.266 1.268 1.592 4.188 1.374 3.712 1.162-1.842-.822-3.03-1.643-3.31-3.527-.33-2.219 2.122-4.636 2.782-5.48Z"/></svg>
